!!!COA:	Josquin des Prez
!!!CDT:	~1450-1521/08/27
!!!COM2: La Rue, Pierre de
!!!CDT2: ~1452///-1518/11/20/
!!!OTL:	Tous les regretz
!!!AGN:	Chanson
!!!SCT:	NJE 28.34
!!!SCA:	New Josquin Edition 28.34
!!!voices:	4
**kern	**kern	**kern	**kern
*staff4	*staff3	*staff2	*staff1
*Ivox	*Ivox	*Ivox	*Ivox
*I"Bassus	*I"Tenor	*I"Altus	*I"Superius
*I'B	*I'T	*I'A	*I'S
*clefF4	*clefGv2	*clefGv2	*clefG2
*k[]	*k[]	*k[]	*k[]
*M2/1	*M2/1	*M2/1	*M2/1
*met(C|)	*met(C|)	*met(C|)	*met(C|)
=1-	=1-	=1-	=1-
0r	0r	0d	0r
=2	=2	=2	=2
0r	0r	1d	0r
.	.	2d\	.
.	.	4c\	.
.	.	4B\	.
=3	=3	=3	=3
0r	0r	2d\	0a
.	.	2.c\	.
.	.	4B\	.
.	.	4A/	.
.	.	4G/	.
=4	=4	=4	=4
0D	0r	2F/	1a
.	.	1f	.
.	.	.	2a/
.	.	4e\	4g/
.	.	4d\	4f/
=5	=5	=5	=5
1C	0r	2f\	2a/
.	.	2e\	2.g/
1C	.	2.c\	.
.	.	.	4f/
.	.	.	4e/
.	.	4d\	4d/
=6	=6	=6	=6
2AA/	0A	1e	0c
2.C/	.	.	.
.	.	1e	.
4BB/	.	.	.
4AA/	.	.	.
4GG/	.	.	.
=7	=7	=7	=7
0FF	1A	0f	1r
.	2A/	.	1cc
.	4G/	.	.
.	4F/	.	.
=8	=8	=8	=8
2r	2A/	1e	1cc
2C/	2.G/	.	.
1C	.	[1c	1cc
.	4F/	.	.
.	4E/	.	.
.	4D/	.	.
=9	=9	=9	=9
2AA/	2C/	2c\]	1cc
2FF/	1F	4B\	.
.	.	4A/	.
1GG	.	1G	1b-
.	2E/	.	.
=10	=10	=10	=10
0FF	1F	1A	2a/
.	.	.	1a
.	1c	4F/	.
.	.	4G/	.
.	.	4A/	4g/
.	.	4B\	4f/
=11	=11	=11	=11
0r	1c	4c\	2a/
.	.	4d\	.
.	.	2.e\	2.g/
.	1c	.	.
.	.	4d\	4f/
.	.	4c\	4e/
.	.	4B\	4d/
=12	=12	=12	=12
0r	1c	2A/	2c/
.	.	2F/	1f
.	1B-i	1G	.
.	.	.	2e/
=13	=13	=13	=13
1r	0A	2F/	1f
.	.	2f\	.
1AA	.	2e\	1c
.	.	[2c\	.
=14	=14	=14	=14
1D	0r	2c\]	1d
.	.	4B\	.
.	.	4A/	.
1D	.	1B	1d
=15	=15	=15	=15
0C	0r	1c	[0e
.	.	2.E/	.
.	.	4F/	.
=16	=16	=16	=16
1r	0r	2G/	0e]
.	.	2.A/	.
1C	.	.	.
.	.	4B\	.
.	.	[2c\	.
=17	=17	=17	=17
1D	1r	2c\]	0r
.	.	1B	.
1C	1A	.	.
.	.	[2A/	.
=18	=18	=18	=18
1BB	1d	2A/]	0r
.	.	4G#i/	.
.	.	4F#i/	.
1BB	1d	1G#i	.
=19	=19	=19	=19
0AA	0c	0A	1r
.	.	.	2.e/
.	.	.	4f/
=20	=20	=20	=20
0r	1r	0r	2g/
.	.	.	2.a/
.	1c	.	.
.	.	.	4b\
.	.	.	[2cc\
=21	=21	=21	=21
0r	1d	0r	2cc\]
.	.	.	1b
.	1c	.	.
.	.	.	[2a/
=22	=22	=22	=22
0r	1B	1r	2a/]
.	.	.	4g#i/
.	.	.	4f#i/
.	1B	1d	1g#i
=23	=23	=23	=23
2r	0A	2f\	0a
2D\	.	2f\	.
2D\	.	1e	.
2C/	.	.	.
=24	=24	=24	=24
2.F\	0r	2d\	1r
.	.	1f	.
4E\	.	.	.
2D\	.	.	1a
4C/	.	4e\	.
4BB/	.	4d\	.
=25	=25	=25	=25
1AA	2r	2.c\	2cc\
.	2A/	.	2cc\
.	.	4d\	.
1EE	2A/	1e	1b
.	2G/	.	.
=26	=26	=26	=26
2r	1c	0E	2r
2AA/	.	.	2a/
2EE/	1B	.	2a/
2EE/	.	.	2g/
=27	=27	=27	=27
1AA	2r	2r	2a/
.	2A/	1F	1cc
2FF/	2A/	.	.
2GG/	2G/	4E/	4b\
.	.	4D/	4a/
=28	=28	=28	=28
1AA	2c\	2F/	2b\
.	2c\	2E/	1a
1EE	1B	1e	.
.	.	.	2g#i/
=29	=29	=29	=29
2r	[0A;	1c	1a
1FF	.	.	.
.	.	1d	1f
4EE/	.	.	.
4DD/	.	.	.
=30	=30	=30	=30
1AA	0A_	4c\	2e/
.	.	4B\	.
.	.	4A/	1f
.	.	4G/	.
1DD	.	1F	.
.	.	.	4e/
.	.	.	4d/
=31	=31	=31	=31
0AA;	0A]	0E;	0c;
=32	=32	=32	=32
1r	1r	1r	1r
1AA	1A	1c	1e
=33	=33	=33	=33
1AA	1A	1c	1e
1GG	1B	1d	1g
=34	=34	=34	=34
2FF/	1A	2.f\	0a
1FF	.	.	.
.	.	4e\	.
.	2A/	2c\	.
4EE/	[2A/	2d\	.
4DD/	.	.	.
=35	=35	=35	=35
0AA	2A/]	2e\	1a
.	4G/	1A	.
.	4F/	.	.
.	[1c	.	2a/
.	.	4G/	[2a/
.	.	4F/	.
=36	=36	=36	=36
1r	2c\]	2E/	2a/]
.	2B\	1F	4g/
.	.	.	4f/
1AA	1A	.	[1cc
.	.	4E/	.
.	.	4D/	.
=37	=37	=37	=37
1C	1G	1E	2cc\]
.	.	.	2b\
1FF	2r	1F	1a
.	[2c\	.	.
=38	=38	=38	=38
1EE	2c\]	1G	1g
.	1B	.	.
1FF	.	1F	2r
.	[2A/	.	[2cc\
=39	=39	=39	=39
1EE	2A/]	1r	2cc\]
.	2G/	.	2.b\
1FF	1A	1F	.
.	.	.	4a/
.	.	.	[2a/
=40	=40	=40	=40
2r	1B	1G	2a/]
2EE/	.	.	2g/
2.FF/	1A	2F/	1a
.	.	4E/	.
4GG/	.	4D/	.
=41	=41	=41	=41
2AA/	2r	2C/	1r
1DD	1F	2D/	.
.	.	1A	[1a
2CC/	[2E/	.	.
=42	=42	=42	=42
1DD	2E/]	2r	1a]
.	1D	1f	.
1AA	.	.	[1a
.	2C/	[2e\	.
=43	=43	=43	=43
1DD	1D	4e\]	1a]
.	.	4d\	.
.	.	1d	.
1AA	1E	.	1a
.	.	2c#i\	.
=44	=44	=44	=44
1.BB-i	0D	0d	0f
2AA/	.	.	.
=45	=45	=45	=45
1GG	1r	1B	1g
2FF/	[1F	1A	2a/
[2AA/	.	.	[2cc\
=46	=46	=46	=46
4AA/]	1F]	[0c	4cc\]
4GG/	.	.	4b\
1FF	.	.	2a/
.	1G	.	1g
2EE/	.	.	.
=47	=47	=47	=47
1FF	1A	0c]	2r
.	.	.	2.cc\
2r	2r	.	.
.	.	.	4b\
2FF/	[2c\	.	2a/
=48	=48	=48	=48
2EE/	2c\]	2r	2g/
2FF/	4B\	2c\	1f
.	4A/	.	.
1C	1G	2.c\	.
.	.	.	2e/
.	.	4B\	.
=49	=49	=49	=49
2FF/	1F	2c\	2f/
2BB-/	.	2d\	2d/
2C/	1r	2c\	2e/
2D\	.	2A/	[2f/
=50	=50	=50	=50
1BB-i	1F	1B-	2f/]
.	.	.	4e/
.	.	.	4d/
2C/	2E/	2G/	2e/
2D\	[2A/	2F/	[2f/
=51	=51	=51	=51
1BB-i	4A/]	1D	2f/]
.	4G/	.	.
.	2.G/	.	4e/
.	.	.	4d/
1AA	.	1A	1c
.	4E/	.	.
.	2F/	.	.
=52	=52	=52	=52
0GG	2G/	0B	2r
.	2D/	.	2d/
.	2.G/	.	2e/
.	.	.	[2g/
.	4F/	.	.
=53	=53	=53	=53
0AA	4E/	[0Al	4g/]
.	4D/	.	4f/
.	2F/	.	4e/
.	.	.	4d/
.	1E	.	4c#i/
.	.	.	2d/
.	.	.	4c#i/
=54	=54	=54	=54
0DDl	0Dl	0A]	0dl
==	==	==	==
*-	*-	*-	*-
!!!RDF**kern: l=long note in original notation
!!!RDF**kern: i=editorial accidental
!!!RDF**kern: V=start of tuplet marker
!!!RDF**kern: Z=end of tuplet marker
!!!ENC:	Chris Gage 06-08-2012
!!!END:	2012/06/10/
!!!EED:	Jesse Rodin
!!!EEV:	2012/06/21/
!!attribution-level@Jos: 6 (very doubtful)
!!!ONB:	Translated from MusicXML and edited on 2012/06/21/ by Craig Sapp
!!muse2ps: C^La Rue/Josquin?\n@{SCT}^i2I150v85,85,85,150Q16
